img/notification-16.svg

<svg id="Layer_1" xmlns="http://www.w3.org/2000/svg" viewBox="0 0 16 16"><style>.st0{fill:#424c55}</style><path class="st0" d="M13.6 1H2.4C1.1 1 0 2.1 0 3.4v6.2C0 10.9 1.1 12 2.4 12h5.8l3 3.6c.3.4 1 .5 1.4.1.2-.2.4-.5.4-.8v-3h.6c1.3 0 2.4-1.1 2.4-2.4V3.4C16 2.1 14.9 1 13.6 1zm.4 8.6c0 .2-.2.4-.4.4H12c-.6 0-1 .4-1 1v1.2l-1.5-1.8c-.2-.3-.5-.4-.8-.4H2.4c-.2 0-.4-.2-.4-.4V3.4c0-.2.2-.4.4-.4h11.2c.2 0 .4.2.4.4v6.2z"/><path class="st0" d="M11.5 5h-7c-.3 0-.5.2-.5.5s.2.5.5.5h7c.3 0 .5-.2.5-.5s-.2-.5-.5-.5zm0 2h-7c-.3 0-.5.2-.5.5s.2.5.5.5h7c.3 0 .5-.2.5-.5s-.2-.5-.5-.5z"/></svg>

<?xml version="1.0" encoding="utf-8"?>
<!-- Generator: Adobe Illustrator 21.1.0, SVG Export Plug-In . SVG Version: 6.00 Build 0)  -->
<svg version="1.1" id="Layer_1" xmlns="http://www.w3.org/2000/svg" xmlns:xlink="http://www.w3.org/1999/xlink" x="0px" y="0px"
	 viewBox="0 0 16 16" style="enable-background:new 0 0 16 16;" xml:space="preserve">
<style type="text/css">
	.st0{fill:#424C55;}
</style>
<g>
	<path class="st0" d="M13.6,1H2.4C1.1,1,0,2.1,0,3.4v6.2C0,10.9,1.1,12,2.4,12h5.8l3,3.6c0.3,0.4,1,0.5,1.4,0.1
		c0.2-0.2,0.4-0.5,0.4-0.8v-3h0.6c1.3,0,2.4-1.1,2.4-2.4V3.4C16,2.1,14.9,1,13.6,1z M14,9.6c0,0.2-0.2,0.4-0.4,0.4c0,0,0,0,0,0H12
		c-0.6,0-1,0.4-1,1v1.2l-1.5-1.8C9.3,10.1,9,10,8.7,10H2.4C2.2,10,2,9.8,2,9.6l0,0V3.4C2,3.2,2.2,3,2.4,3h0h11.2
		C13.8,3,14,3.2,14,3.4c0,0,0,0,0,0L14,9.6z"/>
	<path class="st0" d="M11.5,5h-7C4.2,5,4,5.2,4,5.5S4.2,6,4.5,6h7C11.8,6,12,5.8,12,5.5S11.8,5,11.5,5z M11.5,7h-7
		C4.2,7,4,7.2,4,7.5S4.2,8,4.5,8h7C11.8,8,12,7.8,12,7.5S11.8,7,11.5,7z"/>
</g>
</svg>
